X: 43
T: 30 Year, The
R: jig
M: 6/8
K: Gmajor
D|:"C" EDE"D" FEF|"G" GBG D2 D|"C" EcB AGE|"D" FG(G A)A/F/D|
"C" EDE"D" FEF|"G" GBG D2 D|"C" EcB AGE|1 "D" (FG)"G"G- G z D:|2 "D" (FG)"G"G- G z G||
|:"G" gfg"D" agf|"G"{f} g2 g d2 d|"C"{d} egf edc|"Am"{c} BAG"D" A3|
"G" gfg"D" agf|"G"{f} g2 g d2 d|"C" egf edB-|"Em" Bgf edB|
"C" cBA"Em"{A} B2 B|"C" ced"Em" BAB|cBc"Am" eag|1 "D"{g} (fg)"G"g- g z g:|2 "D" (fg)"G"g- g z D||

